icon/pk/octagon.svg

<svg viewBox="0 0 48 48" fill="none" xmlns="http://www.w3.org/2000/svg" height="1em" width="1em">
  <path d="M15.4102 42.3887L5.56076 32.1812C5.20103 31.8083 5 31.3105 5 30.7924V17.2076C5 16.6895 5.20103 16.1917 5.56076 15.8188L15.4102 5.61126C15.7871 5.22064 16.3066 5 16.8494 5H31.1506C31.6934 5 32.2129 5.22064 32.5898 5.61126L42.4392 15.8188C42.799 16.1917 43 16.6895 43 17.2076V30.7924C43 31.3105 42.799 31.8083 42.4392 32.1812L32.5898 42.3887C32.2129 42.7794 31.6934 43 31.1506 43H16.8494C16.3066 43 15.7871 42.7794 15.4102 42.3887Z" fill="#2F88FF" stroke="black" stroke-width="4"/>
</svg>

<svg width="48" height="48" fill="none" xmlns="http://www.w3.org/2000/svg"><path d="M15.41 42.389 5.56 32.18A2 2 0 0 1 5 30.792V17.208a2 2 0 0 1 .56-1.39l9.85-10.207A2 2 0 0 1 16.85 5h14.3a2 2 0 0 1 1.44.611l9.85 10.208a2 2 0 0 1 .56 1.389v13.584a2 2 0 0 1-.56 1.39l-9.85 10.207a2 2 0 0 1-1.44.611h-14.3a2 2 0 0 1-1.44-.611Z" fill="#2F88FF" stroke="#000" stroke-width="4"/></svg>
